docs/svgs/recessed-ceiling.svg

<svg viewBox="0 0 24 24" height="24px" width="24px" fill="#44739e" xmlns="http://www.w3.org/2000/svg"><title>hue:recessed-ceiling</title><desc>Source: https://github.com/arallsopp/hass-hue-icons</desc><path d="M 11.996094 8.25 C 9.421875 8.25 6.96875 8.710938 5.09375 9.550781 C 4.191406 9.953125 3.515625 10.398438 3.003906 10.851562 C 2.949219 9.777344 3.851562 8.695312 5.703125 7.890625 C 9.199219 6.371094 14.792969 6.371094 18.289062 7.890625 C 20.144531 8.695312 21.050781 9.777344 20.996094 10.855469 C 20.484375 10.402344 19.804688 9.953125 18.898438 9.550781 C 17.019531 8.710938 14.570312 8.25 11.996094 8.25 Z M 18.289062 10.171875 C 21.828125 11.75 21.945312 14.363281 18.457031 16.003906 C 14.921875 17.667969 9.109375 17.667969 5.570312 16.003906 C 2.078125 14.363281 2.183594 11.75 5.722656 10.171875 C 9.210938 8.609375 14.800781 8.609375 18.289062 10.171875 Z M 16.84375 15.183594 C 19.460938 14.4375 19.375 13.25 16.71875 12.53125 C 14.101562 11.824219 9.910156 11.824219 7.292969 12.53125 C 4.640625 13.25 4.5625 14.4375 7.179688 15.183594 C 9.835938 15.9375 14.191406 15.9375 16.84375 15.183594 Z M 16.84375 15.183594 "/></svg>

<svg viewBox="0 0 24 24" height="24px" width="24px" fill="#44739e" xmlns="http://www.w3.org/2000/svg"><title>hue:recessed-ceiling</title><desc>Source: https://github.com/arallsopp/hass-hue-icons</desc><path d="M12,8.25c-2.57,0-5.03,0.46-6.9,1.3c-0.9,0.4-1.58,0.85-2.09,1.3C2.95,9.78,3.85,8.7,5.7,7.89 c3.5-1.52,9.09-1.52,12.59,0c1.86,0.8,2.76,1.89,2.71,2.96c-0.51-0.45-1.19-0.9-2.1-1.3C17.02,8.71,14.57,8.25,12,8.25z M18.29,10.17c3.54,1.58,3.66,4.19,0.17,5.83c-3.54,1.66-9.35,1.66-12.89,0c-3.49-1.64-3.39-4.25,0.15-5.83 C9.21,8.61,14.8,8.61,18.29,10.17z M16.84,15.18c2.62-0.75,2.53-1.93-0.12-2.65c-2.62-0.71-6.81-0.71-9.43,0 c-2.65,0.72-2.73,1.91-0.11,2.65C9.84,15.94,14.19,15.94,16.84,15.18z"/></svg>
